X:9
T:31oct2000
C:Eric Forgeot
N:cration : avril 00
N:<anamnese@laposte.net>
N:(adaptation non termine)
M:4/4
L:1/4
Q:1/4=100
K:C
V:1
z E-E/ z/ D/ z/ | E2-E3/2 z/ | E2 D E-|E2-E/ z/ E-|E D E2-|E G2 F |
E2 D C |E2 D2-|D E2-|E2 D F-|F 
V:2
A,4-|A,4-|A,4-|A,4-|A,4-|A,4-|A,4|B,A,3|G,A,2
